Adwaita++-Dark/actions/22/debug-execute-to-cursor.svg

<svg height="22" viewBox="0 0 22 22" width="22" xmlns="http://www.w3.org/2000/svg">
  <path d="m9 1v2h2v10h-2v2h6v-2h-2v-10h2v-2zm-3 3v3h-3v-2h-2v6h2v-2h3v3l4-4z" fill="#e6ddff" transform="translate(3 3)"/>
</svg>

<svg xmlns="http://www.w3.org/2000/svg" width="22" height="22" viewBox="0 0 22 22">
 <defs>
  <style id="current-color-scheme" type="text/css">
   .ColorScheme-Text { color:#E6DDFF; } .ColorScheme-Highlight { color:#4285f4; }
  </style>
 </defs>
 <path style="fill:currentColor" class="ColorScheme-Text" d="M 9 1 L 9 3 L 11 3 L 11 13 L 9 13 L 9 15 L 15 15 L 15 13 L 13 13 L 13 3 L 15 3 L 15 1 L 9 1 z M 6 4 L 6 7 L 3 7 L 3 5 L 1 5 L 1 11 L 3 11 L 3 9 L 6 9 L 6 12 L 10 8 L 6 4 z" transform="translate(3 3)"/>
</svg>
